img/pay4.svg

<svg width="29" height="21" viewBox="0 0 29 21" fill="none" xmlns="http://www.w3.org/2000/svg">
<path d="M23.7085 17.1309C23.7085 17.4323 23.4871 17.6492 23.1685 17.6492C22.8404 17.6492 22.6285 17.4188 22.6285 17.1309C22.6285 16.8431 22.8404 16.6127 23.1685 16.6127C23.4871 16.6127 23.7085 16.8431 23.7085 17.1309ZM8.71821 16.6127C8.37529 16.6127 8.17822 16.8431 8.17822 17.1309C8.17822 17.4188 8.37616 17.6492 8.71821 17.6492C9.03161 17.6492 9.24344 17.4323 9.24344 17.1309C9.23823 16.8431 9.03161 16.6127 8.71821 16.6127ZM14.3855 16.6C14.125 16.6 13.9653 16.7546 13.9271 16.985H14.8482C14.8048 16.7323 14.6364 16.6 14.3855 16.6ZM19.5848 16.6127C19.2566 16.6127 19.0596 16.8431 19.0596 17.1309C19.0596 17.4188 19.2575 17.6492 19.5848 17.6492C19.913 17.6492 20.1248 17.4323 20.1248 17.1309C20.1248 16.8431 19.9121 16.6127 19.5848 16.6127ZM24.6921 17.7688C24.6921 17.7823 24.7069 17.7911 24.7069 17.8174C24.7069 17.8309 24.6921 17.8397 24.6921 17.866C24.6774 17.8796 24.6774 17.8883 24.6678 17.9011C24.653 17.9147 24.6435 17.9234 24.6148 17.9234C24.6001 17.937 24.5905 17.937 24.5619 17.937C24.5471 17.937 24.5376 17.937 24.5089 17.9234C24.4942 17.9234 24.4846 17.9099 24.4707 17.9011C24.456 17.8876 24.4464 17.8788 24.4464 17.866C24.4317 17.8437 24.4317 17.8309 24.4317 17.8174C24.4317 17.7951 24.4317 17.7823 24.4464 17.7688C24.4464 17.7464 24.4612 17.7337 24.4707 17.7201C24.4855 17.7066 24.495 17.7066 24.5089 17.6978C24.5332 17.6842 24.5471 17.6842 24.5619 17.6842C24.5862 17.6842 24.6001 17.6842 24.6148 17.6978C24.6392 17.7106 24.653 17.7106 24.6678 17.7201C24.6826 17.7297 24.6774 17.7464 24.6921 17.7688ZM24.5862 17.8309C24.6105 17.8309 24.6105 17.8174 24.6244 17.8174C24.6392 17.8038 24.6392 17.7951 24.6392 17.7823C24.6392 17.7696 24.6392 17.76 24.6244 17.7472C24.6105 17.7472 24.6001 17.7337 24.5714 17.7337H24.4942V17.8883H24.5324V17.8262H24.5471L24.6001 17.8883H24.6383L24.5862 17.8309ZM28.1986 2.54574V18.1371C28.1983 18.701 27.9543 19.2417 27.5201 19.6404C27.086 20.0391 26.4972 20.2632 25.8832 20.2634H2.73234C2.11834 20.2632 1.52956 20.0391 1.0954 19.6404C0.661234 19.2417 0.417222 18.701 0.416992 18.1371V2.54574C0.417222 1.98188 0.661234 1.44116 1.0954 1.04245C1.52956 0.643734 2.11834 0.419645 2.73234 0.419434H25.8832C26.4972 0.419645 27.086 0.643734 27.5201 1.04245C27.9543 1.44116 28.1983 1.98188 28.1986 2.54574ZM3.50499 8.72855C3.50499 12.1169 6.5001 14.8627 10.1845 14.8627C11.4967 14.8593 12.7791 14.5037 13.8741 13.8398C10.3581 11.2136 10.3824 6.25702 13.8741 3.63003C12.7802 2.96402 11.497 2.60828 10.1845 2.60713C6.5001 2.60315 3.50499 5.35292 3.50499 8.72855ZM14.3082 13.548C17.7087 11.1116 17.694 6.36386 14.3082 3.91465C10.9224 6.36386 10.9077 11.1164 14.3082 13.548ZM7.44464 16.9276C7.44464 16.5426 7.16944 16.2898 6.73536 16.2763C6.51312 16.2763 6.27698 16.3385 6.11811 16.5641C6.00265 16.3823 5.80471 16.2763 5.52951 16.2763C5.42951 16.2749 5.33065 16.2959 5.24153 16.3376C5.15241 16.3793 5.07573 16.4403 5.01817 16.5155V16.3209H4.62316V17.9465H5.01817C5.01817 17.1094 4.8975 16.6087 5.45224 16.6087C5.94448 16.6087 5.84812 17.0608 5.84812 17.9465H6.22923C6.22923 17.1357 6.10856 16.6087 6.66331 16.6087C7.15555 16.6087 7.05831 17.052 7.05831 17.9465H7.45419V16.9276H7.44464ZM9.61067 16.3209H9.22955V16.5155C9.16209 16.4382 9.076 16.3763 8.97807 16.3348C8.88015 16.2933 8.77306 16.2733 8.66525 16.2763C8.16867 16.2763 7.78756 16.6398 7.78756 17.1309C7.78756 17.6268 8.16867 17.9856 8.66525 17.9856C8.91615 17.9856 9.09933 17.9011 9.22955 17.7464V17.9505H9.61067V16.3209ZM11.564 17.4546C11.564 16.7905 10.4597 17.0911 10.4597 16.7809C10.4597 16.5282 11.0336 16.5689 11.3522 16.7323L11.511 16.4445C11.0579 16.1742 10.0543 16.179 10.0543 16.8081C10.0543 17.4411 11.1586 17.1756 11.1586 17.4722C11.1586 17.7512 10.5075 17.7289 10.1602 17.5073L9.99178 17.7863C10.5318 18.1227 11.564 18.0518 11.564 17.4538V17.4546ZM13.2716 17.866L13.1657 17.5647C12.9825 17.6571 12.5771 17.7592 12.5771 17.3829V16.6478H13.2091V16.3201H12.5771V15.8242H12.1812V16.3201H11.8149V16.6438H12.1812V17.3837C12.1812 18.1634 13.0155 18.0215 13.2716 17.866ZM13.9123 17.2729H15.2389C15.2389 16.5553 14.8821 16.2715 14.3994 16.2715C13.888 16.2715 13.5217 16.6215 13.5217 17.1262C13.5217 18.0342 14.6121 18.1849 15.152 17.7552L14.9689 17.4897C14.593 17.7735 14.0235 17.7464 13.9123 17.2729ZM16.7633 16.3209C16.5419 16.2324 16.2042 16.2412 16.0306 16.5155V16.3209H15.6347V17.9465H16.0306V17.0297C16.0306 16.5155 16.489 16.5824 16.6479 16.6574L16.7633 16.3209ZM17.2747 17.1309C17.2747 16.6255 17.8346 16.462 18.273 16.7586L18.4562 16.4708C17.8963 16.0682 16.8788 16.289 16.8788 17.1349C16.8788 18.0119 17.9588 18.1889 18.4562 17.7991L18.273 17.5112C17.8294 17.7991 17.2747 17.6268 17.2747 17.1301V17.1309ZM20.4911 16.3209H20.0953V16.5155C19.6951 16.0283 18.6533 16.3034 18.6533 17.1309C18.6533 17.9816 19.7333 18.2248 20.0953 17.7464V17.9505H20.4911V16.3209ZM22.1163 16.3209C22.0009 16.2675 21.5859 16.1926 21.3836 16.5155V16.3209H21.0025V17.9465H21.3836V17.0297C21.3836 16.5426 21.8177 16.5737 22.0009 16.6574L22.1163 16.3209ZM24.0601 15.6608H23.679V16.5155C23.2831 16.0331 22.237 16.2898 22.237 17.1309C22.237 17.9904 23.3222 18.22 23.679 17.7464V17.9505H24.0601V15.6608ZM24.4273 12.3346V12.5387H24.4655V12.3346H24.5567V12.2995H24.3344V12.3346H24.4273ZM24.7451 17.8174C24.7451 17.7951 24.7451 17.7688 24.7312 17.7464C24.7164 17.7329 24.7069 17.7114 24.693 17.6978C24.6791 17.6842 24.6548 17.6755 24.64 17.6627C24.6157 17.6627 24.5871 17.6492 24.5628 17.6492C24.548 17.6492 24.5246 17.6627 24.495 17.6627C24.476 17.6725 24.4582 17.6843 24.4421 17.6978C24.4178 17.7106 24.4039 17.7329 24.4039 17.7464C24.3891 17.7688 24.3891 17.7951 24.3891 17.8174C24.3891 17.8309 24.3891 17.8525 24.4039 17.8796C24.4039 17.8931 24.4186 17.9147 24.4421 17.9282C24.4567 17.9433 24.4748 17.9553 24.495 17.9633C24.5193 17.976 24.548 17.976 24.5628 17.976C24.5871 17.976 24.6157 17.976 24.64 17.9633C24.6548 17.9497 24.6782 17.941 24.693 17.9282C24.7077 17.9155 24.7173 17.8931 24.7312 17.8796C24.7451 17.8533 24.7451 17.8309 24.7451 17.8174ZM24.8996 12.2947H24.8319L24.7546 12.4494L24.6774 12.2947H24.6096V12.5339H24.6478V12.3521L24.7251 12.5068H24.7781L24.8458 12.3521V12.5339H24.8987L24.8996 12.2947ZM25.1114 8.72855C25.1114 5.35292 22.1163 2.60315 18.4319 2.60315C17.1197 2.60617 15.8371 2.96174 14.7423 3.62604C18.2201 6.25304 18.273 11.2224 14.7423 13.8358C15.8368 14.5007 17.1196 14.8563 18.4319 14.8587C22.1163 14.8635 25.1114 12.1169 25.1114 8.72855Z" fill="white"/>
</svg>

<svg xmlns="http://www.w3.org/2000/svg" width="29" height="21" fill="none"><path fill="#fff" d="M23.709 17.13c0 .302-.222.52-.54.52-.329 0-.54-.231-.54-.52 0-.287.211-.517.54-.517.318 0 .54.23.54.518m-14.99-.517c-.344 0-.54.23-.54.518s.197.518.54.518a.5.5 0 0 0 .524-.518.51.51 0 0 0-.525-.518m5.667-.013c-.261 0-.42.155-.459.385h.921c-.043-.253-.212-.385-.463-.385m5.199.013a.5.5 0 0 0-.525.518c0 .288.198.518.525.518.328 0 .54-.217.54-.518 0-.288-.213-.518-.54-.518m5.107 1.156c0 .013.015.022.015.048 0 .014-.015.023-.015.049-.015.014-.015.022-.024.035-.015.014-.024.022-.053.022-.015.014-.024.014-.053.014-.015 0-.024 0-.053-.014-.015 0-.024-.013-.038-.022-.015-.013-.025-.022-.025-.035-.014-.022-.014-.035-.014-.049 0-.022 0-.035.014-.048 0-.023.015-.035.025-.049.014-.013.024-.013.038-.022.024-.014.038-.014.053-.014.024 0 .038 0 .053.014.024.013.038.013.053.022.015.01.01.026.024.049m-.106.062c.024 0 .024-.014.038-.014.015-.013.015-.022.015-.035 0-.012 0-.022-.015-.035-.014 0-.024-.013-.053-.013h-.077v.154h.038v-.062h.015l.053.062h.038zM28.2 2.546v15.591c0 .564-.245 1.105-.679 1.503a2.42 2.42 0 0 1-1.637.623H2.733a2.42 2.42 0 0 1-1.638-.623 2.04 2.04 0 0 1-.678-1.503V2.546c0-.564.244-1.105.678-1.504A2.42 2.42 0 0 1 2.732.42h23.151c.614 0 1.203.225 1.637.623.434.4.678.94.679 1.504M3.505 8.729c0 3.388 2.995 6.134 6.68 6.134a7.17 7.17 0 0 0 3.69-1.023c-3.517-2.626-3.493-7.583 0-10.21a7.1 7.1 0 0 0-3.69-1.023C6.5 2.603 3.505 5.353 3.505 8.73m10.803 4.819c3.4-2.436 3.386-7.184 0-9.633-3.386 2.449-3.4 7.201 0 9.633m-6.863 3.38c0-.385-.276-.638-.71-.652-.222 0-.458.063-.617.288-.115-.182-.313-.288-.588-.288a.7.7 0 0 0-.288.062.6.6 0 0 0-.224.177v-.194h-.395v1.625h.395c0-.837-.12-1.337.434-1.337.492 0 .396.452.396 1.337h.381c0-.81-.12-1.337.434-1.337.493 0 .395.443.395 1.337h.396v-1.018zm2.166-.607H9.23v.194a.7.7 0 0 0-.252-.18.75.75 0 0 0-.313-.059c-.496 0-.877.364-.877.855 0 .496.38.855.877.855.251 0 .434-.085.565-.24v.205h.38zm1.953 1.134c0-.664-1.104-.364-1.104-.674 0-.253.574-.212.892-.049l.159-.287c-.453-.27-1.457-.266-1.457.363 0 .633 1.105.368 1.105.664 0 .28-.652.257-.999.035l-.168.28c.54.336 1.572.265 1.572-.333m1.708.411-.106-.301c-.184.092-.589.194-.589-.182v-.735h.632v-.328h-.632v-.496h-.396v.496h-.366v.324h.366v.74c0 .78.835.637 1.09.482m.64-.593h1.327c0-.718-.357-1.001-.84-1.001-.511 0-.877.35-.877.854 0 .908 1.09 1.059 1.63.63l-.183-.266c-.376.284-.945.256-1.057-.217m2.851-.952c-.221-.089-.559-.08-.732.194v-.194h-.396v1.625h.396v-.916c0-.515.458-.448.617-.373zm.512.81c0-.506.56-.669.998-.372l.183-.288c-.56-.403-1.577-.182-1.577.664 0 .877 1.08 1.054 1.577.664l-.183-.288c-.444.288-.998.116-.998-.38m3.216-.81h-.396v.194c-.4-.487-1.442-.212-1.442.616 0 .85 1.08 1.094 1.442.615v.205h.396zm1.625 0c-.115-.054-.53-.128-.732.194v-.194h-.381v1.625h.38v-.916c0-.487.435-.456.618-.373zm1.944-.66h-.381v.854c-.396-.482-1.442-.225-1.442.616 0 .86 1.085 1.089 1.442.615v.205h.381zm.367-3.326v.204h.038v-.204h.092v-.036h-.223v.036zm.318 5.482c0-.022 0-.048-.014-.07-.015-.014-.024-.036-.038-.05-.014-.013-.038-.021-.053-.034-.024 0-.053-.014-.077-.014-.015 0-.038.014-.068.014a.3.3 0 0 0-.053.035c-.024.013-.038.035-.038.048-.015.023-.015.05-.015.071 0 .014 0 .035.015.063 0 .013.015.035.038.048a.2.2 0 0 0 .053.035.15.15 0 0 0 .068.013c.024 0 .053 0 .077-.013.015-.013.038-.022.053-.035.015-.012.024-.035.038-.048.014-.027.014-.05.014-.063m.155-5.522h-.068l-.077.154-.078-.154h-.067v.239h.038v-.182l.077.155h.053l.068-.155v.182h.053zm.211-3.566c0-3.376-2.995-6.126-6.68-6.126a7.16 7.16 0 0 0-3.689 1.023c3.478 2.627 3.531 7.596 0 10.21a7.15 7.15 0 0 0 3.69 1.023c3.684.005 6.68-2.742 6.68-6.13"/></svg>
